X:1
T:Back of the Smithie, The
T:Back of the Smithie, The
T:Robert Petrie
C:Robert Petrie
L:1/8
M:2/2
K:D
V:1 treble 
V:1
 g | fA A/A/A e2 eg | f2 ef dBBg | fA A/A/A e2 ef | gedB A/A/AA :: e | cAec defd | dfec cBBe | %8
 cAec defd | efec A/A/AA :| %10

